src/assets/selectIcons/varie_9.svg

<svg xmlns="http://www.w3.org/2000/svg" viewBox="0 0 512 512" style="height: 512px; width: 512px;"><path d="M0 0h512v512H0z" fill="#000" fill-opacity="1"></path><g class="" transform="translate(0,0)" style=""><path d="M146.857 20.842c-12.535-.036-24.268 2.86-37.285 9.424h.004C61.356 54.6 19.966 120.734 17.982 175.91l41.848 14.236c4.33-61.89 47.057-128.37 101.527-155.86h.002c4.423-2.23 8.822-4.162 13.185-5.8l-22.26-7.45c-1.83-.123-3.637-.19-5.428-.194zm59.34 20.19c-10.478-.09-22.832 3.093-36.424 9.943l.004-.004c-48.23 24.34-89.625 90.513-91.548 145.436l156.485 53.24c3.865-62.22 46.797-129.372 101.613-157.035h.002l.002-.003c4.303-2.168 8.584-4.056 12.832-5.666l-134.54-45.036c-2.652-.542-5.458-.847-8.427-.873zm174.97 58.323c-10.476-.09-22.83 3.092-36.42 9.94l-.005.002c-48.577 24.518-90.225 91.473-91.586 146.623l46.205 15.72c3.914-62.188 46.825-129.274 101.607-156.92 4.522-2.283 9.04-4.258 13.53-5.91l-26.544-8.884c-2.164-.35-4.423-.55-6.785-.57zm63.554 22.014c-10.267.093-22.094 3.353-35.333 10.034-47.158 23.8-87.777 87.587-91.362 141.75l174.55-73.726c-.404-39.01-10.754-61.304-24.415-71.082-2.347-1.68-4.867-3.057-7.55-4.137l-.01.034-4.735-1.584c-3.48-.887-7.195-1.327-11.144-1.29zM17.9 195.622l-.035 187.484L59.46 397.58V209.764L17.9 195.624zM78.15 216.12v187.962l156.282 54.37V269.288l-29.053-9.886v119.43l-101.054-34.082V225.025L78.15 216.12zm414.22 3.683L318.433 293.27v189.236l173.935-73.504v-189.2zm-369.354 11.582v99.947l63.675 21.477v-99.763l-63.674-21.662zm31.306 28.797c9.705 0 17.573 7.867 17.573 17.572 0 6.34-3.37 11.88-8.407 14.97v28.53h-18.69v-28.746c-4.838-3.13-8.048-8.562-8.048-14.754 0-9.705 7.867-17.572 17.572-17.572zm98.797 15.464v189.307l46.626 16.22V291.51l-46.627-15.864z" fill="#fff" fill-opacity="1"></path></g></svg>

<?xml version="1.0" encoding="UTF-8" standalone="no"?>
<!DOCTYPE svg PUBLIC "-//W3C//DTD SVG 1.1//EN" "http://www.w3.org/Graphics/SVG/1.1/DTD/svg11.dtd">
<svg width="100%" height="100%" viewBox="0 0 512 512" version="1.1" xmlns="http://www.w3.org/2000/svg" xmlns:xlink="http://www.w3.org/1999/xlink" xml:space="preserve" xmlns:serif="http://www.serif.com/" style="fill-rule:evenodd;clip-rule:evenodd;stroke-linejoin:round;stroke-miterlimit:2;">
    <rect x="0" y="0" width="512" height="512" style="fill-rule:nonzero;"/>
    <g>
        <path d="M146.857,20.842C134.322,20.806 122.589,23.702 109.572,30.266L109.576,30.266C61.356,54.6 19.966,120.734 17.982,175.91L59.83,190.146C64.16,128.256 106.887,61.776 161.357,34.286L161.359,34.286C165.782,32.056 170.181,30.124 174.544,28.486L152.284,21.036C150.454,20.913 148.647,20.846 146.856,20.842L146.857,20.842ZM206.197,41.032C195.719,40.942 183.365,44.125 169.773,50.975L169.777,50.971C121.547,75.311 80.152,141.484 78.229,196.407L234.714,249.647C238.579,187.427 281.511,120.275 336.327,92.612L336.329,92.612L336.331,92.609C340.634,90.441 344.915,88.553 349.163,86.943L214.623,41.907C211.971,41.365 209.165,41.06 206.196,41.034L206.197,41.032ZM381.167,99.355C370.691,99.265 358.337,102.447 344.747,109.295L344.742,109.297C296.165,133.815 254.517,200.77 253.156,255.92L299.361,271.64C303.275,209.452 346.186,142.366 400.968,114.72C405.49,112.437 410.008,110.462 414.498,108.81L387.954,99.926C385.79,99.576 383.531,99.376 381.169,99.356L381.167,99.355ZM444.721,121.369C434.454,121.462 422.627,124.722 409.388,131.403C362.23,155.203 321.611,218.99 318.026,273.153L492.576,199.427C492.172,160.417 481.822,138.123 468.161,128.345C465.814,126.665 463.294,125.288 460.611,124.208L460.601,124.242L455.866,122.658C452.386,121.771 448.671,121.331 444.722,121.368L444.721,121.369ZM17.9,195.622L17.865,383.106L59.46,397.58L59.46,209.764L17.9,195.624L17.9,195.622ZM78.15,216.12L78.15,404.082L234.432,458.452L234.432,269.288L205.379,259.402L205.379,378.832L104.325,344.75L104.325,225.025L78.15,216.12ZM492.37,219.803L318.433,293.27L318.433,482.506L492.368,409.002L492.368,219.802L492.37,219.803ZM253.119,275.646L253.119,464.953L299.745,481.173L299.745,291.51L253.118,275.646L253.119,275.646Z" style="fill:rgb(157,144,91);fill-rule:nonzero;"/>
        <path d="M123.017,231.384L186.691,253.046L186.691,352.809L123.016,331.332L123.017,231.384ZM154.322,260.182C144.617,260.182 136.75,268.049 136.75,277.754C136.75,283.946 139.96,289.378 144.798,292.508L144.798,321.254L163.488,321.254L163.488,292.724C168.525,289.634 171.895,284.094 171.895,277.754C171.895,268.049 164.027,260.182 154.322,260.182Z" style="fill:rgb(235,219,21);"/>
    </g>
</svg>
